X:869
T:Reel 869
M:4/4
K:Gmaj
L:1/8
 (3 (3BBB B2 B2 (3BAG | (3FBA  (3cBA B>G (3EFE |D>G (3BAB c2B (3BcB |c>A (3AAA d2dc|B<G (3GGG D>G (3GFG |B>E (3EFE B>A (3cBA |G>B (3BBB  (3cBA |BAGF G2:||:d>c (3BcB d>B  (3BcB | (3efe f>g B>g (3BcB |e>A (3cBA f>A (3AFA |e>A (3AAA e>A (3AAA |d>f (3gfg d>B (3BcB | (3efg d>B  (3BAB d2|e>c (3cBA f>d (3fgf |e2E2 :|
